X:1
T:Shoel, LM
T:A Compilation of Genuine Church Music, 1832
T:Shoel, LM
T:Public Domain
C:A Compilation of Genuine Church Music, 1832
Z:Public Domain
%%score ( 1 2 ) ( 3 4 )
L:1/8
M:2/4
K:F
V:1 treble 
V:2 treble 
V:3 bass 
V:4 bass 
V:1
 F2 | ([FA][FA]) (A[Fc]) | [Fc]3 [Af] | [GB](c/d/) ([Fc][EB]) | [FA]3 [Ac] | ([Ac][Ff]) (AB) | %6
 ([Gc][Af]) ([Ge][Fd]) | [Cc]2 [D=B]2 | [Ec]2 [Ec]2 | ([FA][FA]) (A[Fc]) | [Bd]3 [Ac] | (cA) (FA) | %12
 [EG]3 [EG] | ([FA][FA]) ([Ac][FA]) | [GB](c/[Bd]/) ([Gc]B) | [FA]2 [EG]2 | F2 |] %17
V:2
 F2 | x2 A x | x4 | x F x2 | x4 | x2 F2 | x4 | x4 | x4 | x2 A x | x4 | A2 F2 | x4 | x4 | x4 | x4 | %16
 F2 |] %17
V:3
 [F,A,]2 | (CA,) (CF) | [A,F]3 [F,C] | (DF) [C,E]2 | [F,F]3 [C,C] | (A,C) (CD) | %6
 ([C,E][D,F]) ([E,G][F,F]) | [G,E]2 [G,,G,D]2 | [C,C]2 [F,A,]2 | (CA,) (CF) | [B,F]3 [F,F] | %11
 (FC) (CF) | [C,C]3 [C,C] | FC (A,F,) | (DF) ([A,,F][B,,D]) | [C,C]2 [C,C]2 | [F,C]2 |] %17
V:4
 x2 | F,2 F,2 | x4 | B,2 x2 | x4 | F,2 F,2 | x4 | x4 | x4 | F,2 F,2 | x4 | F,2 F,2 | x4 | F,2 F,2 | %14
 B,,2 x2 | x4 | x2 |] %17

